X: 1
T: Lady Birr
S: From a session, based on Fisherstreet &quot;Out In The Night&quot; version
M: 4/4
L: 1/8
R: reel
K: Ador
EAAG ABcd|eB~B2 efg2|GEDE ~G3B|cABG AGEG|
A2EA ABcd|eB~B2 efga|gedB ~c3e|1 gedB BAAG:|2 gedB BA~A2||
|:a2ea ageg|agbg agef|g2ef g2ef|geaf gede| 
a2ea ageg|agbg agef|gedB ~c3e|1 gedB BA~A2:|2 gedB BAAG||
